64x64/apps/eu.scarpetta.PDFMixTool.svg

<svg height="64" width="64" xmlns="http://www.w3.org/2000/svg"><path d="m12.75 5c-1.524 0-2.75 1.249-2.75 2.8v50.4c0 1.551 1.226 2.8 2.75 2.8h38.5c1.523 0 2.75-1.249 2.75-2.8v-37.2l-13.75-2-2.25-14z" opacity=".2"/><path d="m12.75 4c-1.524 0-2.75 1.249-2.75 2.8v50.4c0 1.551 1.226 2.8 2.75 2.8h38.5c1.523 0 2.75-1.249 2.75-2.8v-37.2l-13.75-2-2.25-14z" fill="#f14223"/><path d="m14 8v48h36v-36.14l-9.692-1.978-1.94-9.882z" fill="#f4f4f7"/><path d="m38 17.332v1a2.663 2.663 0 0 0 2.668 2.668h13.332v-1h-13.332a2.663 2.663 0 0 1 -2.668-2.668z" opacity=".1"/><path d="m54 20-16-16v13.333a2.66 2.66 0 0 0 2.667 2.667z" fill="#f46b53"/><g fill="#17191e" transform="matrix(-1.00787465 1.05827015 1.00787465 1.05827015 -244.006096 -272.10639)"><path d="m7.938 274.51v21.167h2.645v-21.167z"/><path d="m2.646 278.48v-1.324c2.014-.303 3.109-.756 4.34-2.702l4.92.056h2.646v3.97z"/></g><path d="m29.398 44.949.935 4.051-3 3h-3.333l3.333-3.333-1-3-3-1-3.333 3.333v-3.333l3-3 3.333.666 1.077.24 9.429-9.07-1.172-4.503 3-3h3.333l-3.333 3.333 1 3 3 1 3.333-3.333v3.333l-3 3-4.173-.813z" fill="#696a6a"/><path d="m12.75 4c-1.524 0-2.75 1.25-2.75 2.8v1c0-1.55 1.226-2.8 2.75-2.8h25.25v-1z" fill="#f4f4f7" opacity=".2"/><path d="m14 56h36v1h-36z" opacity=".2"/></svg>

<svg height="64" width="64" xmlns="http://www.w3.org/2000/svg">
    <path d="M12.75 5C11.226 5 10 6.249 10 7.8v50.4c0 1.551 1.226 2.8 2.75 2.8h38.5c1.523 0 2.75-1.249 2.75-2.8V21l-13.75-2L38 5z" opacity=".2"/>
    <path d="M12.75 4C11.226 4 10 5.249 10 6.8v50.4c0 1.551 1.226 2.8 2.75 2.8h38.5c1.523 0 2.75-1.249 2.75-2.8V20l-13.75-2L38 4z" fill="#f14223"/>
    <path d="M14 8v48h36V19.86l-9.692-1.978L38.368 8z" fill="#f4f4f7"/>
    <path d="M38 17.332v1A2.663 2.663 0 0 0 40.668 21H54v-1H40.668A2.663 2.663 0 0 1 38 17.332z" opacity=".1"/>
    <path d="M54 20 38 4v13.333A2.66 2.66 0 0 0 40.667 20z" fill="#f46b53"/>
    <g fill="#17191e">
        <path d="M24.665 26.8 46 49.2 43.333 52 21.999 29.598z"/>
        <path d="M34 25.4 32.666 24c-2.336 1.81-3.896 2.49-7.098 1.733L20.666 31l-2.667 2.8L22 38.001z"/>
    </g>
    <path d="M29.398 44.949 30.333 49l-3 3H24l3.333-3.333-1-3-3-1L20 48v-3.333l3-3 3.333.666 1.077.24 9.429-9.07L35.667 29l3-3H42l-3.333 3.333 1 3 3 1L46 30v3.333l-3 3-4.173-.813z" fill="#696a6a"/>
    <path d="M12.75 4C11.226 4 10 5.25 10 6.8v1C10 6.25 11.226 5 12.75 5H38V4z" fill="#f4f4f7" opacity=".2"/>
    <path d="M14 56h36v1H14z" opacity=".2"/>
</svg>
